cms/static/cms/icons/arrow-up.svg

<?xml version="1.0" encoding="UTF-8"?>
<svg width="24px" height="24px" viewBox="0 0 24 24" version="1.1" xmlns="http://www.w3.org/2000/svg" xmlns:xlink="http://www.w3.org/1999/xlink">
    <!-- Generator: Sketch 48.2 (47327) - http://www.bohemiancoding.com/sketch -->
    <title>Resources/icons/arrow-up</title>
    <desc>Created with Sketch.</desc>
    <defs>
        <path d="M11,6.41421356 L6.70710678,10.7071068 C6.31658249,11.0976311 5.68341751,11.0976311 5.29289322,10.7071068 C4.90236893,10.3165825 4.90236893,9.68341751 5.29289322,9.29289322 L11.2928932,3.29289322 C11.6834175,2.90236893 12.3165825,2.90236893 12.7071068,3.29289322 L18.7071068,9.29289322 C19.0976311,9.68341751 19.0976311,10.3165825 18.7071068,10.7071068 C18.3165825,11.0976311 17.6834175,11.0976311 17.2928932,10.7071068 L13,6.41421356 L13,20 C13,20.5522847 12.5522847,21 12,21 C11.4477153,21 11,20.5522847 11,20 L11,6.41421356 Z" id="path-1"></path>
    </defs>
    <g id="Symbols" stroke="none" stroke-width="1" fill="none" fill-rule="evenodd">
        <g id="Resources/icons/arrow-up">
            <mask id="mask-2" fill="white">
                <use xlink:href="#path-1"></use>
            </mask>
            <use id="Combined-Shape" fill="#000000" fill-rule="nonzero" xlink:href="#path-1"></use>
            <g id="Resources/Colour/black" mask="url(#mask-2)" fill="#000000">
                <rect id="Rectangle" x="0" y="0" width="24" height="24"></rect>
            </g>
        </g>
    </g>
</svg>

<?xml version="1.0" encoding="utf-8"?>
<!-- Generator: Adobe Illustrator 19.1.0, SVG Export Plug-In . SVG Version: 6.00 Build 0)  -->
<svg version="1.1" id="Layer_1" xmlns="http://www.w3.org/2000/svg" xmlns:xlink="http://www.w3.org/1999/xlink" x="0px" y="0px"
	 viewBox="0 0 24 24" enable-background="new 0 0 24 24" xml:space="preserve">
<g id="Symbols">
	<g id="Resources_x2F_icons_x2F_arrow-up">
		<g id="Combined-Shape">
			<path id="path-1_1_" d="M11,6.4l-4.3,4.3c-0.4,0.4-1,0.4-1.4,0c-0.4-0.4-0.4-1,0-1.4l6-6c0.4-0.4,1-0.4,1.4,0l6,6
				c0.4,0.4,0.4,1,0,1.4c-0.4,0.4-1,0.4-1.4,0L13,6.4V20c0,0.6-0.4,1-1,1s-1-0.4-1-1V6.4z"/>
		</g>
	</g>
</g>
</svg>
